app/img/contact-twitter.svg

<svg width="42" height="42" viewBox="0 0 42 42" fill="none" xmlns="http://www.w3.org/2000/svg">
<path d="M37.6455 11.0808C36.4207 11.6091 35.0878 11.9894 33.7149 12.1375C35.1403 11.2907 36.2077 9.95287 36.7168 8.37505C35.3793 9.17072 33.914 9.72866 32.386 10.0241C31.7474 9.34138 30.975 8.79748 30.117 8.42631C29.2589 8.05514 28.3337 7.86465 27.3988 7.86672C23.6163 7.86672 20.5744 10.9327 20.5744 14.6951C20.5744 15.2235 20.6384 15.7518 20.7425 16.2602C15.0788 15.964 10.0275 13.2582 6.66936 9.11553C6.05746 10.1607 5.7368 11.3507 5.74075 12.5618C5.74075 14.9313 6.94553 17.0207 8.78273 18.2495C7.70004 18.2068 6.64271 17.9092 5.69672 17.3809V17.4649C5.69672 20.7831 8.04225 23.5329 11.1683 24.1653C10.5813 24.3178 9.97753 24.3957 9.37111 24.3974C8.92682 24.3974 8.50655 24.3534 8.08227 24.2934C8.94683 26.9991 11.4645 28.9644 14.4624 29.0284C12.1169 30.8656 9.17898 31.9463 5.98891 31.9463C5.41654 31.9463 4.8882 31.9263 4.33984 31.8623C7.36581 33.8035 10.9561 34.9243 14.8226 34.9243C27.3748 34.9243 34.2432 24.5255 34.2432 15.4997C34.2432 15.2035 34.2432 14.9073 34.2232 14.6111C35.5521 13.6385 36.7168 12.4337 37.6455 11.0808Z" fill="#2091F9"/>
</svg>

<svg width="42" height="42" fill="none" xmlns="http://www.w3.org/2000/svg"><path d="M37.645 11.08a13.69 13.69 0 01-3.93 1.057 6.808 6.808 0 003.002-3.762 13.474 13.474 0 01-4.331 1.65 6.808 6.808 0 00-4.987-2.158 6.823 6.823 0 00-6.825 6.828c0 .528.064 1.057.168 1.565A19.396 19.396 0 016.67 9.116a6.777 6.777 0 00-.928 3.446 6.83 6.83 0 003.042 5.688 6.886 6.886 0 01-3.086-.87v.085a6.827 6.827 0 005.471 6.7c-.587.153-1.19.23-1.797.232a9.1 9.1 0 01-1.289-.104 6.837 6.837 0 006.38 4.735 13.68 13.68 0 01-8.473 2.918c-.572 0-1.1-.02-1.65-.084a19.327 19.327 0 0010.484 3.062c12.552 0 19.42-10.398 19.42-19.424 0-.296 0-.593-.02-.889a14.7 14.7 0 003.422-3.53z" fill="#2091F9"/></svg>
